X: 48
T: No_141_Song_Concerning_a_Wounded_Apache.krn
N: Derived from No_141_Song_Concerning_a_Wounded_Apache.krn
%%abc-version 2.0
%%abcx-abcm2ps-target-version 5.9.1 (29 Sep 2008)
%%abc-creator hum2abc beta
%%abcx-conversion-date 2019/03/15 08:37:56
%%humdrum-veritas 820635120
%%humdrum-veritas-data 2004839212
%%linebreak <none>
%%barnumbers 0
L: 1/8
M: 2/4
K: Bb clef=bass
F,2 [I:setbarnb 1]| 
C2C3/B,/ | 
G,2F,2 | 
G,3/F,/ G,G, | 
F,F, C3/B,/ | 
C2CB,/B,/ | 
G,2F,E, ||  
[M:3/4]E,C,/ z/ E,E,/E,/ C,C,/ z/ | 
F,2G,3/F,/F,2 | 
G,3F, E,G, ||  
[M:2/4]F,4 | 
F,2F,2 | 
F,4 |]  



